assets/Person taking bath/Medium-Dark/Flat/person_taking_bath_flat_medium-dark.svg

<svg width="32" height="32" viewBox="0 0 32 32" fill="none" xmlns="http://www.w3.org/2000/svg">
<path d="M18.35 12.31L14.76 18.53H25.52L21.93 12.31C21.13 10.94 19.14 10.94 18.35 12.31Z" fill="#FFC83D"/>
<path d="M6.83008 14.87L7.96008 17.29L10.4501 16.15L9.28008 13.7L6.83008 14.87Z" fill="#FCB100"/>
<path d="M10.5599 13.79C9.96992 14.55 8.65992 15.46 7.48992 15.1L6.02992 14.49L4.47992 13.87C3.55992 13.14 3.38992 11.8 4.10992 10.87L4.95992 9.76999C5.68992 8.84999 7.02992 8.67999 7.95992 9.39999L8.63992 9.92999C8.63996 9.93 8.63987 9.92998 8.63992 9.92999C9.0234 10.0001 9.25611 10.0069 9.41755 10.0116C9.60133 10.0169 9.69294 10.0195 9.81005 10.11C10.0301 10.28 10.0201 10.65 9.85005 10.87C9.84831 10.8723 9.84658 10.8745 9.84486 10.8766C10.9045 11.7421 11.5538 12.5196 10.5599 13.79Z" fill="#FFC83D"/>
<path d="M6.13991 10.46C5.02991 11.89 5.88991 12.56 5.88991 12.56C5.88991 12.56 5.28991 13.03 7.03991 14.4C7.94991 15.11 7.20991 15.64 6.95991 15.96C6.54991 16.49 5.57991 15.86 6.12991 15.16C6.12991 15.16 5.41991 16.04 2.94991 14.12C1.14991 12.72 2.22991 10.92 3.40991 10.04C4.26991 9.4 3.90991 9.21 4.64991 8.26C4.89991 7.94 5.51991 7.5 6.23991 8.06C6.91991 8.6 7.07991 9.25 6.13991 10.46Z" fill="#F1A11E"/>
<path d="M5.88993 12.56C5.59993 12.94 5.65993 13.48 6.03993 13.78C6.41993 14.08 6.96993 14 7.25993 13.63" fill="#FDBB11"/>
<path d="M10.0565 11.5049C10.1311 11.5306 10.1708 11.6118 10.1451 11.6865C10.0095 12.0809 9.56738 12.302 9.16121 12.1543C9.08707 12.1273 9.04882 12.0453 9.07578 11.9712C9.10274 11.8971 9.1847 11.8588 9.25885 11.8858C9.51268 11.9781 9.79052 11.8391 9.87494 11.5936C9.90058 11.519 9.98186 11.4793 10.0565 11.5049Z" fill="#990839"/>
<path d="M8.58999 10.57C8.63999 10.51 8.61999 10.4 8.53999 10.34C8.53999 10.34 8.52999 10.34 8.52999 10.33C8.21999 10.1 7.83999 10.23 7.63999 10.48C7.43999 10.73 7.40999 11.14 7.71999 11.38C7.71999 11.38 7.72999 11.38 7.72999 11.39C7.80999 11.45 7.90999 11.44 7.95999 11.38L8.58999 10.57Z" fill="white"/>
<path d="M8.66008 10.47C8.63008 10.42 8.59008 10.38 8.53008 10.34C8.31008 10.17 8.01008 10.17 7.88008 10.34C7.74008 10.52 7.81008 10.8 8.04008 10.98C8.09008 11.02 8.14008 11.05 8.20008 11.07L8.66008 10.47Z" fill="#7D4533"/>
<path d="M8.58002 10.58C8.56002 10.52 8.52002 10.47 8.47002 10.43C8.34002 10.33 8.17002 10.33 8.10002 10.43C8.02002 10.53 8.06002 10.69 8.19002 10.79C8.24002 10.83 8.30003 10.86 8.36003 10.86L8.58002 10.58Z" fill="black"/>
<path d="M8.32781 10.4323C8.35494 10.3974 8.34161 10.3417 8.29803 10.3078C8.25445 10.2738 8.19712 10.2746 8.16999 10.3095C8.14285 10.3443 8.15618 10.4001 8.19976 10.434C8.24334 10.4679 8.30067 10.4672 8.32781 10.4323Z" fill="white"/>
<path opacity="0.5" d="M7.45642 9.68078C7.51674 9.73959 7.51796 9.83617 7.45915 9.8965C7.28544 10.0747 7.19861 10.2683 7.15515 10.4176C7.12258 10.5295 7.11478 10.6157 7.113 10.6475C7.10927 10.7338 7.05321 10.8126 6.95992 10.8126C6.87567 10.8126 6.80737 10.7443 6.80737 10.66C6.80769 10.5695 6.81983 10.4779 6.8622 10.3324C6.91623 10.1467 7.02441 9.90534 7.2407 9.68351C7.29951 9.62318 7.39609 9.62196 7.45642 9.68078Z" fill="#D37034"/>
<path d="M13.8201 18.62C14.9295 18.62 15.907 18.0555 16.4811 17.198C16.9029 17.7121 17.5431 18.04 18.26 18.04C18.569 18.04 18.8637 17.9791 19.1329 17.8686C19.5371 19.1727 20.7529 20.12 22.19 20.12C23.9573 20.12 25.39 18.6873 25.39 16.92C25.39 15.1527 23.9573 13.72 22.19 13.72C21.4199 13.72 20.7133 13.992 20.1612 14.4452C19.7471 13.8384 19.0501 13.44 18.26 13.44C17.6623 13.44 17.1179 13.668 16.7089 14.0417C16.1939 12.9643 15.0939 12.22 13.8201 12.22C12.0528 12.22 10.6201 13.6527 10.6201 15.42C10.6201 17.1873 12.0528 18.62 13.8201 18.62Z" fill="#26C9FC"/>
<path d="M23.25 2C21.1789 2 19.5 3.67893 19.5 5.75V6.21376C18.548 6.55582 17.8201 7.37165 17.6019 8.38001C17.5319 8.70001 17.7819 9.00001 18.1119 9.00001H22.5419C23.2219 9.00001 23.4719 8.70001 23.4019 8.38001C23.1834 7.37031 22.4539 6.55365 21.5 6.2124V5.75C21.5 4.7835 22.2835 4 23.25 4C24.2165 4 25 4.7835 25 5.75V16H27V5.75C27 3.67893 25.3211 2 23.25 2Z" fill="#9B9B9B"/>
<path d="M10.06 28.8C9.78 29.08 9.31 29.08 9.03 28.8C8.74 28.52 8.74 28.06 9.03 27.77L10.04 26.76C10.33 26.48 10.79 26.48 11.07 26.76C11.35 27.05 11.35 27.51 11.07 27.79L10.06 28.8Z" fill="#9B9B9B"/>
<path d="M22.9099 28.8C23.1899 29.08 23.6599 29.08 23.9399 28.8C24.2199 28.52 24.2199 28.06 23.9399 27.77L22.9299 26.76C22.6499 26.48 22.1799 26.48 21.8999 26.76C21.6199 27.05 21.6199 27.51 21.8999 27.79L22.9099 28.8Z" fill="#9B9B9B"/>
<path d="M4.05997 17.42C3.77997 16.46 4.49997 15.5 5.49997 15.5H27.5C28.5 15.5 29.22 16.46 28.94 17.42L27.68 21.74C26.6844 25.1533 23.5555 27.5 20 27.5H13C9.44441 27.5 6.31552 25.1533 5.31997 21.74L4.05997 17.42Z" fill="#E1D8EC"/>
<rect x="3" y="15" width="27" height="2" rx="1" fill="#F3EEF8"/>
</svg>

<svg xmlns="http://www.w3.org/2000/svg" width="32" height="32" fill="none"><path fill="#FFC83D" d="m18.35 12.31-3.59 6.22h10.76l-3.59-6.22c-.8-1.37-2.79-1.37-3.58 0Z"/><path fill="#FCB100" d="m6.83 14.87 1.13 2.42 2.49-1.14-1.17-2.45-2.45 1.17Z"/><path fill="#FFC83D" d="M10.56 13.79c-.59.76-1.9 1.67-3.07 1.31l-1.46-.61-1.55-.62a2.153 2.153 0 0 1-.37-3l.85-1.1c.73-.92 2.07-1.09 3-.37l.68.53c.383.07.616.077.778.082.183.005.275.008.392.098.22.17.21.54.04.76a.218.218 0 0 1-.005.007c1.06.865 1.709 1.643.715 2.913Z"/><path fill="#F1A11E" d="M6.14 10.46c-1.11 1.43-.25 2.1-.25 2.1s-.6.47 1.15 1.84c.91.71.17 1.24-.08 1.56-.41.53-1.38-.1-.83-.8 0 0-.71.88-3.18-1.04-1.8-1.4-.72-3.2.46-4.08.86-.64.5-.83 1.24-1.78.25-.32.87-.76 1.59-.2.68.54.84 1.19-.1 2.4Z"/><path fill="#FDBB11" d="M5.89 12.56c-.29.38-.23.92.15 1.22.38.3.93.22 1.22-.15"/><path fill="#990839" d="M10.056 11.505a.143.143 0 0 1 .09.181.767.767 0 0 1-.985.468.143.143 0 0 1 .098-.268.481.481 0 0 0 .616-.292.143.143 0 0 1 .181-.09Z"/><path fill="#fff" d="M8.59 10.57c.05-.06.03-.17-.05-.23 0 0-.01 0-.01-.01-.31-.23-.69-.1-.89.15-.2.25-.23.66.08.9 0 0 .01 0 .01.01.08.06.18.05.23-.01l.63-.81Z"/><path fill="#7D4533" d="M8.66 10.47a.402.402 0 0 0-.13-.13c-.22-.17-.52-.17-.65 0-.14.18-.07.46.16.64.05.04.1.07.16.09l.46-.6Z"/><path fill="#000" d="M8.58 10.58a.327.327 0 0 0-.11-.15c-.13-.1-.3-.1-.37 0-.08.1-.04.26.09.36.05.04.11.07.17.07l.22-.28Z"/><path fill="#fff" d="M8.328 10.432c.027-.035.014-.09-.03-.124s-.1-.033-.128.002c-.027.034-.014.09.03.124.043.034.1.033.128-.002Z"/><path fill="#D37034" d="M7.456 9.68c.06.06.062.156.003.216a1.242 1.242 0 0 0-.346.752c-.004.086-.06.165-.153.165a.153.153 0 0 1-.153-.153c0-.09.013-.182.055-.328.054-.185.162-.427.379-.648a.153.153 0 0 1 .215-.003Z" opacity=".5"/><path fill="#26C9FC" d="M13.82 18.62c1.11 0 2.087-.565 2.661-1.422a2.295 2.295 0 0 0 2.652.67 3.201 3.201 0 0 0 6.257-.948 3.2 3.2 0 0 0-5.229-2.475 2.298 2.298 0 0 0-3.452-.403 3.2 3.2 0 1 0-2.889 4.578Z"/><path fill="#9B9B9B" d="M23.25 2a3.75 3.75 0 0 0-3.75 3.75v.464a2.976 2.976 0 0 0-1.898 2.166c-.07.32.18.62.51.62h4.43c.68 0 .93-.3.86-.62A2.976 2.976 0 0 0 21.5 6.212V5.75a1.75 1.75 0 1 1 3.5 0V16h2V5.75A3.75 3.75 0 0 0 23.25 2ZM10.06 28.8c-.28.28-.75.28-1.03 0a.718.718 0 0 1 0-1.03l1.01-1.01c.29-.28.75-.28 1.03 0 .28.29.28.75 0 1.03l-1.01 1.01ZM22.91 28.8c.28.28.75.28 1.03 0s.28-.74 0-1.03l-1.01-1.01a.736.736 0 0 0-1.03 0c-.28.29-.28.75 0 1.03l1.01 1.01Z"/><path fill="#E1D8EC" d="M4.06 17.42A1.5 1.5 0 0 1 5.5 15.5h22c1 0 1.72.96 1.44 1.92l-1.26 4.32A8 8 0 0 1 20 27.5h-7a8 8 0 0 1-7.68-5.76l-1.26-4.32Z"/><rect width="27" height="2" x="3" y="15" fill="#F3EEF8" rx="1"/></svg>
